X:2980
T:Polonäs i Gm efter Jean E Blomgren
R:Slängpolska
B:http://www.smus.se/earkiv/fmk/browselarge.php?lang=sw&katalogid=Ma+13d&bildnr=00006
S:efter Jean E Blomgren
Z:Nils L
O:Skåne, Nöbbelöv
M:3/4
L:1/16
K:Gm
GFGA B4 A4 | G2g2 bagf g2d2 | edcB dcBA cBAG | F2G2 A2d2 D4 | 
GFGA B4 A4 | G2g2 bagf g2d2 | edcB dcBA cBAG | FAdF G4 G,4 ::
BdBG BdBG BdBG | c2cd e2d2 c2B2 | AcAF AcAF AcAF | BABc d2B2 A2F2 |  
GFGA B4 A4 | G2g2 bagf g2d2 | edcB dcBA cBAG | FAdF G4 G,4 :| 
(:musicend:)
(:music:)
